X:1
T:Merry Blacksmith
R:reel
M:C
L:1/8
Q:1/4=130
K:D
AB|d2 dA BAFA|ABdA BAFA|ABde fded|Beed egfe|d2dA BAFA|
~A2 FA BAFA|ABde fedB|AFEF D2:|fg|a2 ag ~f3 e|dedA BAFA|ABde f2 ed|
Beed efge|abag fgfe|dedA BAFA|ABde fedB|AFEF D2:|
